X: 21351
T: TULLYMET HALL -- Reel
C: By J. Gow
R: reel
B: K\"ohler's Violin Repository, v.2, 1885 p.135 #1
F: http://www.archive.org/details/klersviolinrepos02rugg
Z: 2012 John Chambers <jc:trillian.mit.edu>
M: C|
L: 1/8
K: Am
u e | (cA)eA e2dg | BGdG Bdde | (cA)ec (dg)de | cdBd cAA :|
u^g | (a/^g/^f/e/) (af) cAec | ^fd=gd BGG^g | (a/^g/^f/e/) (ae) cAec | ^fd^ge aAA ||
 ^g | (a/^g/^f/e/) (ae) cAec | ^fd=gd BGdB | cA^GB AcBd | cedf eA"^Fine."A "_D.C."|]

%%sep 2 1 500

